X: 153
T:Toss the Feathers D
R:reel
M:C|
L:1/8
Q:1/2=112
E:7
K:Dmix
|D2 (3FED ADFD|ABcA GE~E2|D2 (3FED ADFA|defd cAGE|
D2 (3FED ADFD|ABcA GE~E2|cABG ~A3^c|d2ed cAGE:||
Ad~d2 Ad~d2|Ad~d2 ed^cd|eaag ~a3g|eaag ed^cd|
ef (3gfe a2ge|f2ed cA~A2|cABG ~A3c|d2ed cAGE:|
